{
  "compressionlevel": -1,
  "height": 16,
  "infinite": false,
  "layers": [
    {
      "data": [
        1, 2, 3, 4, 5, 6, 7, 8, 9,
        10, 11, 12, 13, 14, 15, 16, 17, 18,
        19, 20, 21, 22, 23, 24, 25, 26, 27,
        28, 29, 30, 31, 32, 33, 34, 35, 36,
        37, 38, 39, 40, 41, 42, 43, 44, 45,
        46, 47, 48, 49, 50, 51, 52, 53, 54,
        16, 16, 16, 16, 16, 16, 16, 16, 16,
        16, 16, 16, 16, 16, 16, 16, 16, 16,
        16, 16, 16, 16, 16, 16, 16, 16, 16,
        16, 16, 16, 16, 16, 16, 16, 16, 16,
        16, 16, 16, 16, 16, 16, 16, 16, 16,
        16, 16, 16, 16, 16, 16, 16, 16, 16,
        16, 16, 16, 16, 16, 16, 16, 16, 16,
        16, 16, 16, 16, 16, 16, 16, 16, 16,
        16, 16, 16, 16, 16, 16, 16, 16, 16,
        16, 16, 16, 16, 16, 16, 16, 16, 16
      ],
      "height": 16,
      "id": 1,
      "name": "Terrain",
      "opacity": 1,
      "type": "tilelayer",
      "visible": true,
      "width": 9,
      "x": 0,
      "y": 0
    },
    {
      "data": [
        0,0,0,0,0,0,0,0,0, 0,0,0,0,0,0,0,0,0,
        0,0,0,0,0,0,0,0,0, 0,0,0,0,0,0,0,0,0,
        0,0,0,0,0,0,0,0,0, 0,0,0,0,0,0,0,0,0,
        0,0,0,0,0,0,0,0,0, 0,0,0,0,0,0,0,0,0,
        0,0,0,0,0,0,0,0,0, 0,0,0,0,0,0,0,0,0,
        0,0,0,0,0,0,0,0,0, 0,0,0,0,0,0,0,0,0,
        0,0,0,0,0,0,0,0,0, 0,0,0,0,0,0,0,0,0,
        0,0,0,0,0,0,0,0,0, 1,0,0,0,0,0,0,0,0
      ],
      "height": 16,
      "id": 2,
      "name": "World Origin",
      "opacity": 0.5,
      "properties": [{ "name": "render", "type": "bool", "value": false }],
      "type": "tilelayer",
      "visible": true,
      "width": 9,
      "x": 0,
      "y": 0
    }
  ],
  "nextlayerid": 3,
  "nextobjectid": 1,
  "orientation": "orthogonal",
  "renderorder": "right-down",
  "tiledversion": "1.11.2",
  "tileheight": 64,
  "tilesets": [{ "firstgid": 1, "source": "../tilesets/TinySwordsTerrain.tsj" }],
  "tilewidth": 64,
  "type": "map",
  "version": "1.10",
  "width": 9
}
